images/icons/v2/save-outline-24.svg

<svg height="24" viewBox="0 0 24 24" width="24" xmlns="http://www.w3.org/2000/svg"><path d="m4 20.5h16v1.5h-16zm15.618-10.5h-4.118v-8h-7v8h-4.118a.75.75 0 0 0 -.516 1.294l8.134 7.706 8.134-7.706a.75.75 0 0 0 -.516-1.294zm-2.51 2.1-5.108 4.834-5.108-4.834-.892-.6h4v-8h4v8h4z"/></svg>

<svg xmlns="http://www.w3.org/2000/svg" width="24" height="24" viewBox="0 0 24 24"><title>save-outline-24</title><path d="M4,20.5H20V22H4ZM19.618,10H15.5V2h-7v8H4.382a.75.75,0,0,0-.516,1.294L12,19l8.134-7.706A.75.75,0,0,0,19.618,10Zm-2.51,2.1L12,16.934,6.892,12.1,6,11.5h4v-8h4v8h4Z"/></svg>
